packages/ffe-icons/icons/open/400/sm/grading.svg

<svg xmlns="http://www.w3.org/2000/svg" height="20" viewBox="0 -960 960 960" width="20"><path d="m646-246 94-94q11-11 25.5-11t25.5 11q11 11 11 25.5T791-289L671.31-169.31Q660-158 645.82-158q-14.18 0-24.82-11l-52-52q-11-11-10.5-25.5T570-272q11-11 25.5-11t25.5 11l25 26ZM180-144q-15.3 0-25.65-10.29Q144-164.58 144-179.79t10.35-25.71Q164.7-216 180-216h264q15.3 0 25.65 10.29Q480-195.42 480-180.21t-10.35 25.71Q459.3-144 444-144H180Zm0-150q-15.3 0-25.65-10.29Q144-314.58 144-329.79t10.35-25.71Q164.7-366 180-366h264q15.3 0 25.65 10.29Q480-345.42 480-330.21t-10.35 25.71Q459.3-294 444-294H180Zm0-150q-15.3 0-25.65-10.29Q144-464.58 144-479.79t10.35-25.71Q164.7-516 180-516h600q15.3 0 25.65 10.29Q816-495.42 816-480.21t-10.35 25.71Q795.3-444 780-444H180Zm0-150q-15.3 0-25.65-10.29Q144-614.58 144-629.79t10.35-25.71Q164.7-666 180-666h600q15.3 0 25.65 10.29Q816-645.42 816-630.21t-10.35 25.71Q795.3-594 780-594H180Zm0-150q-15.3 0-25.65-10.29Q144-764.58 144-779.79t10.35-25.71Q164.7-816 180-816h600q15.3 0 25.65 10.29Q816-795.42 816-780.21t-10.35 25.71Q795.3-744 780-744H180Z"/></svg>

<svg xmlns="http://www.w3.org/2000/svg" height="20" viewBox="0 -960 960 960" width="20"><path d="m646-246 94-94q11-11 25.5-11t25.5 11q11 11 11 25.5T791-289L671.309-169.309Q660-158 645.818-158T621-169l-52-52q-11-11-10.5-25.5T570-272q11-11 25.5-11t25.5 11l25 26ZM180-144q-15.3 0-25.65-10.289-10.35-10.29-10.35-25.5Q144-195 154.35-205.5 164.7-216 180-216h264q15.3 0 25.65 10.289 10.35 10.29 10.35 25.5Q480-165 469.65-154.5 459.3-144 444-144H180Zm0-150q-15.3 0-25.65-10.289-10.35-10.29-10.35-25.5Q144-345 154.35-355.5 164.7-366 180-366h264q15.3 0 25.65 10.289 10.35 10.29 10.35 25.5Q480-315 469.65-304.5 459.3-294 444-294H180Zm0-150q-15.3 0-25.65-10.289-10.35-10.29-10.35-25.5Q144-495 154.35-505.5 164.7-516 180-516h600q15.3 0 25.65 10.289 10.35 10.29 10.35 25.5Q816-465 805.65-454.5 795.3-444 780-444H180Zm0-150q-15.3 0-25.65-10.289-10.35-10.29-10.35-25.5Q144-645 154.35-655.5 164.7-666 180-666h600q15.3 0 25.65 10.289 10.35 10.29 10.35 25.5Q816-615 805.65-604.5 795.3-594 780-594H180Zm0-150q-15.3 0-25.65-10.289-10.35-10.29-10.35-25.5Q144-795 154.35-805.5 164.7-816 180-816h600q15.3 0 25.65 10.289 10.35 10.29 10.35 25.5Q816-765 805.65-754.5 795.3-744 780-744H180Z"/></svg>
